src/assets/header-logo-teal.svg

<svg fill="none" height="50" viewBox="0 0 117 50" width="117" xmlns="http://www.w3.org/2000/svg"><g fill="#16d2aa"><path d="m24.8828.0000036c-3.2681-.00176297-6.5046.6437464-9.5243 1.8994864-3.0198 1.25574-5.76348 3.09702-8.07442 5.41883-2.31095 2.32181-4.14394 5.07848-5.3938 8.11238-1.249868 3.0339-1.89203114 6.2856-1.89027641 9.5691 0 6.6304 2.62151641 12.9895 7.28798641 17.6779 4.66651 4.6884 10.99551 7.3223 17.59481 7.3223 6.5994 0 12.9284-2.6339 17.5949-7.3223s7.288-11.0475 7.288-17.6779c.0017-3.2835-.6404-6.5352-1.8903-9.5691-1.2498-3.0339-3.0828-5.79057-5.3938-8.11238-2.3109-2.32181-5.0546-4.16309-8.0744-5.41883-3.0197-1.25574-6.2562-1.90124937-9.5244-1.8994864zm0 46.5395964c-5.6871 0-11.1415-2.2688-15.16418-6.3078-4.02269-4.0391-6.28456-9.5181-6.2881-15.232.00354-5.7151 2.26481-11.1949 6.28712-15.23615 4.02226-4.04121 9.47676-6.31312 15.16516-6.31667 5.6872.00356 11.1402 2.27573 15.1604 6.31733 4.0202 4.04159 6.2786 9.52159 6.2786 15.23549.007 2.8332-.5426 5.6399-1.6168 8.2594-1.0743 2.6195-2.6521 5.0005-4.6436 7.0063s-4.3575 3.5972-6.9621 4.6831c-2.6045 1.0858-5.3966 1.6447-8.2165 1.6447z"/><path d="m14.1233 30.2042c.3217.4277.74.7724 1.2205 1.0056s1.0094.3483 1.5428.3356c.5337.0138 1.0629-.1007 1.5435-.334.4807-.2333.899-.5787 1.2199-1.0072.7285-1.0151 1.0868-2.2514 1.0146-3.5007v-7.7387l4.1113-2.4945v10.3675c.0737 1.1283-.0851 2.2596-.4664 3.3235-.3812 1.0639-.9767 2.0371-1.7494 2.8592-.7545.722-1.6453 1.285-2.6197 1.6559-.9744.3708-2.0125.5421-3.0538.5036-1.0421.0368-2.081-.1367-3.0554-.5098-.9744-.3732-1.8646-.9384-2.618-1.6628-.7727-.8198-1.36954-1.7907-1.75305-2.852s-.54539-2.1907-.47615-3.3176v-7.873l4.1113-2.4945v10.2332c-.0683 1.2509.2947 2.4874 1.028 3.5007z"/><path d="m38.8461 18.1331c.6778.6499 1.2032 1.4433 1.5379 2.3225.3348.8792.4706 1.8222.3977 2.7607.0799.9339-.0582 1.8738-.4035 2.7446s-.8883 1.6486-1.5856 2.2715c-1.7964 1.1963-3.9378 1.7578-6.087 1.5959h-2.443v2.6824l-4.1117 2.4814v-18.5221h6.5013c2.194-.182 4.3828.4057 6.1939 1.6631zm-3.0303 7.2826c.5404-.6931.8068-1.5626.7476-2.4411.0409-.4303-.0254-.8638-.1932-1.2619-.1679-.3981-.4318-.7481-.7679-1.018-.9101-.5122-1.9497-.7454-2.9902-.6706h-2.3495v6.2233h2.7634c.4969.0606 1.0007.018 1.4806-.1251.4799-.143.9255-.3835 1.3092-.7066z"/><path d="m63.5424 25.2955-2.4695.9925c-.1106-.6819-.467-1.2995-1.0012-1.7348-.5341-.4352-1.2088-.6577-1.8958-.6257-.4884-.0269-.9762.0622-1.4239.2603-.4476.1981-.8424.4993-1.1524.8795-.6574.9435-.9772 2.083-.9076 3.2325-.0723 1.1373.2483 2.2646.9076 3.1919.3127.3761.7085.6738 1.1557.8694.4472.1955.9336.2837 1.4206.2573.7289.0345 1.4468-.1885 2.0291-.6303.5346-.4578.8934-1.0888 1.0146-1.7839l2.4163.818c-.3245 1.0847-1.0012 2.0291-1.9222 2.6824-1.0299.6865-2.2493 1.0294-3.4843.9793-.8379.0479-1.6766-.0803-2.4626-.3759-.786-.2955-1.502-.7521-2.1028-1.3408-.5699-.642-1.0085-1.3907-1.2902-2.2031-.2818-.8123-.4011-1.6726-.3517-2.5314-.0997-1.7362.4854-3.4421 1.6286-4.7479.5942-.5863 1.3034-1.0417 2.0825-1.3373.7792-.2956 1.6111-.4249 2.4427-.3795 1.1584-.1005 2.3171.1925 3.2901.832.973.6396 1.7041 1.5889 2.0764 2.6955z"/><path d="m74.7427 23.0018c.455.4423.8096.9782 1.04 1.5707s.3311 1.2278.2949 1.8628v8.0472h-2.6698v-7.202c0-2.1862-.8811-3.2862-2.6698-3.2862-.4414-.0064-.8797.0773-1.288.2455-.4084.1683-.7784.4177-1.0882.7335-.3515.4013-.6201.869-.7897 1.3756s-.2368 1.0422-.1982 1.5753v6.5583h-2.6698v-18.0122h2.6698v7.5777c.3703-.7176.9471-1.3065 1.6553-1.69.7263-.3745 1.5332-.5632 2.3495-.5497 1.2326-.0533 2.4381.3742 3.364 1.1935z"/><path d="m78.0931 19.5418c-.1596-.1613-.2839-.3546-.3643-.5671-.0805-.2126-.1155-.4399-.103-.667-.013-.2231.022-.4463.1026-.6546.0807-.2083.2051-.3967.3647-.5524.3734-.3104.8516-.4642 1.3349-.4293.4839-.0392.9636.1151 1.3349.4293.1596.1557.2838.3441.3644.5524s.1157.4315.1027.6546c.0125.2271-.0225.4544-.103.667-.0805.2125-.2045.4058-.3641.5671-.1822.1581-.3947.2776-.6241.3513-.2293.0738-.471.1001-.7108.0776-.2397.021-.4813-.0062-.7104-.0798-.2292-.0737-.4414-.1923-.6245-.3491zm2.6698 14.9408h-2.6698v-12.4195h2.6698z"/><path d="m93.8052 29.2653h-9.0372c.0831.9429.4941 1.8261 1.1613 2.4945.6676.5841 1.5315.8912 2.4162.8585.6984.0258 1.3918-.1265 2.0158-.4427.5141-.2547.9073-.7028 1.0944-1.2472l2.2028.9119c-.89 1.9134-2.6698 2.8745-5.3397 2.8835-.8358.0467-1.672-.0817-2.4557-.3773-.7837-.2955-1.4975-.7515-2.0962-1.3392-.57-.642-1.0086-1.3906-1.2903-2.203-.2818-.8124-.4014-1.6726-.352-2.5315-.1079-1.7321.4569-3.4388 1.5754-4.7613.5793-.5832 1.2747-1.0365 2.0409-1.3301s1.5856-.4208 2.4042-.3733c.7828-.0434 1.566.0825 2.296.3694.7301.2869 1.3903.7282 1.9359 1.2937 1.0445 1.2291 1.5837 2.8117 1.5083 4.426.0086.4575-.0182.9149-.0801 1.3681zm-7.9428-4.4932c-.6342.6678-1.0205 1.5345-1.0944 2.4545h6.6746c-.0687-.9055-.4404-1.7612-1.0546-2.4276-.2888-.292-.6353-.5202-1.0168-.6703s-.79-.2186-1.1994-.2014c-.8507-.0365-1.6812.2672-2.3094.8448z"/><path d="m105.766 22.063-4.912 12.4195h-2.8971l-4.9392-12.4195h2.9235l3.4842 10.2602 3.5776-10.2602z"/><path d="m116.913 29.2653h-9.038c.083.9429.495 1.826 1.162 2.4944.668.5842 1.532.8913 2.416.8586.699.0258 1.392-.1265 2.016-.4427.514-.2547.907-.7028 1.094-1.2472l2.203.9119c-.89 1.9134-2.67 2.8745-5.34 2.8834-.835.0476-1.672-.0803-2.456-.3759s-1.498-.7521-2.096-1.3405c-.572-.641-1.013-1.3893-1.297-2.2017s-.406-1.673-.358-2.5328c-.104-1.7339.465-3.4408 1.588-4.7613.58-.5832 1.275-1.0365 2.042-1.3301.766-.2936 1.585-.4208 2.404-.3733.783-.0434 1.565.0825 2.296.3694.73.2869 1.39.7282 1.935 1.2937 1.045 1.2291 1.584 2.8117 1.509 4.426.009.4575-.018.9149-.08 1.3681zm-7.943-4.4932c-.634.6678-1.021 1.5345-1.095 2.4545h6.675c-.076-.9038-.447-1.7572-1.055-2.4276-.288-.292-.635-.5202-1.016-.6703-.382-.1501-.79-.2186-1.199-.2014-.851-.0365-1.682.2672-2.31.8448z"/></g></svg>

<svg width="117" height="50" viewBox="0 0 117 50" fill="none" xmlns="http://www.w3.org/2000/svg">
<path d="M24.8828 3.60145e-06C21.6147 -0.00175937 18.3782 0.64375 15.3585 1.89949C12.3387 3.15523 9.59502 4.99651 7.28408 7.31832C4.97313 9.64013 3.14014 12.3968 1.89028 15.4307C0.640412 18.4646 -0.00175114 21.7163 3.58641e-06 24.9998C3.58641e-06 31.6302 2.62152 37.9893 7.28799 42.6777C11.9545 47.3661 18.2835 50 24.8828 50C31.4822 50 37.8112 47.3661 42.4777 42.6777C47.1442 37.9893 49.7657 31.6302 49.7657 24.9998C49.7674 21.7163 49.1253 18.4646 47.8754 15.4307C46.6256 12.3968 44.7926 9.64013 42.4816 7.31832C40.1707 4.99651 37.427 3.15523 34.4072 1.89949C31.3875 0.64375 28.151 -0.00175937 24.8828 3.60145e-06ZM24.8828 46.5396C19.1957 46.5396 13.7413 44.2708 9.71862 40.2318C5.69593 36.1927 3.43406 30.7137 3.43052 24.9998C3.43406 19.2847 5.69533 13.8049 9.71764 9.76365C13.7399 5.72244 19.1944 3.45053 24.8828 3.44698C30.57 3.45054 36.023 5.72271 40.0432 9.76431C44.0634 13.8059 46.3218 19.2859 46.3218 24.9998C46.3288 27.833 45.7792 30.6397 44.705 33.2592C43.6307 35.8787 42.0529 38.2597 40.0614 40.2655C38.0699 42.2713 35.7039 43.8627 33.0993 44.9486C30.4948 46.0344 27.7027 46.5933 24.8828 46.5933V46.5396Z" fill="#16D2AA"/>
<path d="M14.1233 30.2042C14.445 30.6319 14.8633 30.9766 15.3438 31.2098C15.8243 31.443 16.3532 31.5581 16.8866 31.5454C17.4203 31.5592 17.9495 31.4447 18.4301 31.2114C18.9108 30.9781 19.3291 30.6327 19.65 30.2042C20.3785 29.1891 20.7368 27.9528 20.6646 26.7035V18.9648L24.7759 16.4703V26.8378C24.8496 27.9661 24.6908 29.0974 24.3095 30.1613C23.9283 31.2252 23.3328 32.1984 22.5601 33.0205C21.8056 33.7425 20.9148 34.3055 19.9404 34.6764C18.966 35.0472 17.9279 35.2185 16.8866 35.18C15.8445 35.2168 14.8056 35.0433 13.8312 34.6702C12.8568 34.297 11.9666 33.7318 11.2132 33.0074C10.4405 32.1876 9.84366 31.2167 9.46015 30.1554C9.07664 29.0941 8.91476 27.9647 8.984 26.8378V18.9648L13.0953 16.4703V26.7035C13.027 27.9544 13.39 29.1909 14.1233 30.2042Z" fill="#16D2AA"/>
<path d="M38.8461 18.1331C39.5239 18.783 40.0493 19.5764 40.384 20.4556C40.7188 21.3348 40.8546 22.2778 40.7817 23.2163C40.8616 24.1502 40.7235 25.0901 40.3782 25.9609C40.0329 26.8317 39.4899 27.6095 38.7926 28.2324C36.9962 29.4287 34.8548 29.9902 32.7056 29.8283H30.2626V32.5107L26.1509 34.9921V16.47H32.6522C34.8462 16.288 37.035 16.8757 38.8461 18.1331ZM35.8158 25.4157C36.3562 24.7226 36.6226 23.8531 36.5634 22.9746C36.6043 22.5443 36.538 22.1108 36.3702 21.7127C36.2023 21.3146 35.9384 20.9646 35.6023 20.6947C34.6922 20.1825 33.6526 19.9493 32.6121 20.0241H30.2626V26.2474H33.026C33.5229 26.308 34.0267 26.2654 34.5066 26.1223C34.9865 25.9793 35.4321 25.7388 35.8158 25.4157Z" fill="#16D2AA"/>
<path d="M63.5424 25.2955L61.0729 26.288C60.9623 25.6061 60.6059 24.9885 60.0717 24.5532C59.5376 24.118 58.8629 23.8955 58.1759 23.9275C57.6875 23.9006 57.1997 23.9897 56.752 24.1878C56.3044 24.3859 55.9096 24.6871 55.5996 25.0673C54.9422 26.0108 54.6224 27.1503 54.692 28.2998C54.6197 29.4371 54.9403 30.5644 55.5996 31.4917C55.9123 31.8678 56.3081 32.1655 56.7553 32.3611C57.2025 32.5566 57.6889 32.6448 58.1759 32.6184C58.9048 32.6529 59.6227 32.4299 60.205 31.9881C60.7396 31.5303 61.0984 30.8993 61.2196 30.2042L63.6359 31.0222C63.3114 32.1069 62.6347 33.0513 61.7137 33.7046C60.6838 34.3911 59.4644 34.734 58.2294 34.6839C57.3915 34.7318 56.5528 34.6036 55.7668 34.308C54.9808 34.0125 54.2648 33.5559 53.664 32.9672C53.0941 32.3252 52.6555 31.5765 52.3738 30.7641C52.092 29.9518 51.9727 29.0915 52.0221 28.2327C51.9224 26.4965 52.5075 24.7906 53.6507 23.4848C54.2449 22.8985 54.9541 22.4431 55.7332 22.1475C56.5124 21.8519 57.3443 21.7226 58.1759 21.768C59.3343 21.6675 60.493 21.9605 61.466 22.6C62.439 23.2396 63.1701 24.1889 63.5424 25.2955Z" fill="#16D2AA"/>
<path d="M74.7427 23.0018C75.1977 23.4441 75.5523 23.98 75.7827 24.5725C76.0131 25.165 76.1138 25.8003 76.0776 26.4353V34.4825H73.4078V27.2805C73.4078 25.0943 72.5267 23.9943 70.738 23.9943C70.2966 23.9879 69.8583 24.0716 69.45 24.2398C69.0416 24.4081 68.6716 24.6575 68.3618 24.9733C68.0103 25.3746 67.7417 25.8423 67.5721 26.3489C67.4025 26.8555 67.3353 27.3911 67.3739 27.9242V34.4825H64.7041V16.4703H67.3739V24.048C67.7442 23.3304 68.321 22.7415 69.0292 22.358C69.7555 21.9835 70.5624 21.7948 71.3787 21.8083C72.6113 21.755 73.8168 22.1825 74.7427 23.0018Z" fill="#16D2AA"/>
<path d="M78.0931 19.5418C77.9335 19.3805 77.8092 19.1872 77.7288 18.9747C77.6483 18.7621 77.6133 18.5348 77.6258 18.3077C77.6128 18.0846 77.6478 17.8614 77.7284 17.6531C77.8091 17.4448 77.9335 17.2564 78.0931 17.1007C78.4665 16.7903 78.9447 16.6365 79.428 16.6714C79.9119 16.6322 80.3916 16.7865 80.7629 17.1007C80.9225 17.2564 81.0467 17.4448 81.1273 17.6531C81.2079 17.8614 81.243 18.0846 81.23 18.3077C81.2425 18.5348 81.2075 18.7621 81.127 18.9747C81.0465 19.1872 80.9225 19.3805 80.7629 19.5418C80.5807 19.6999 80.3682 19.8194 80.1388 19.8931C79.9095 19.9669 79.6678 19.9932 79.428 19.9707C79.1883 19.9917 78.9467 19.9645 78.7176 19.8909C78.4884 19.8172 78.2762 19.6986 78.0931 19.5418ZM80.7629 34.4826H78.0931V22.0631H80.7629V34.4826Z" fill="#16D2AA"/>
<path d="M93.8052 29.2653H84.768C84.8511 30.2082 85.2621 31.0914 85.9293 31.7598C86.5969 32.3439 87.4608 32.651 88.3455 32.6183C89.0439 32.6441 89.7373 32.4918 90.3613 32.1756C90.8754 31.9209 91.2686 31.4728 91.4557 30.9284L93.6585 31.8403C92.7685 33.7537 90.9887 34.7148 88.3188 34.7238C87.483 34.7705 86.6468 34.6421 85.8631 34.3465C85.0794 34.051 84.3656 33.595 83.7669 33.0073C83.1969 32.3653 82.7583 31.6167 82.4766 30.8043C82.1948 29.9919 82.0752 29.1317 82.1246 28.2728C82.0167 26.5407 82.5815 24.834 83.7 23.5115C84.2793 22.9283 84.9747 22.475 85.7409 22.1814C86.5071 21.8878 87.3265 21.7606 88.1451 21.8081C88.9279 21.7647 89.7111 21.8906 90.4411 22.1775C91.1712 22.4644 91.8314 22.9057 92.377 23.4712C93.4215 24.7003 93.9607 26.2829 93.8853 27.8972C93.8939 28.3547 93.8671 28.8121 93.8052 29.2653ZM85.8624 24.7721C85.2282 25.4399 84.8419 26.3066 84.768 27.2266H91.4426C91.3739 26.3211 91.0022 25.4654 90.388 24.799C90.0992 24.507 89.7527 24.2788 89.3712 24.1287C88.9897 23.9786 88.5812 23.9101 88.1718 23.9273C87.3211 23.8908 86.4906 24.1945 85.8624 24.7721Z" fill="#16D2AA"/>
<path d="M105.766 22.063L100.854 34.4825H97.9569L93.0177 22.063H95.9412L99.4254 32.3232L103.003 22.063H105.766Z" fill="#16D2AA"/>
<path d="M116.913 29.2653H107.875C107.958 30.2082 108.37 31.0913 109.037 31.7597C109.705 32.3439 110.569 32.651 111.453 32.6183C112.152 32.6441 112.845 32.4918 113.469 32.1756C113.983 31.9209 114.376 31.4728 114.563 30.9284L116.766 31.8403C115.876 33.7537 114.096 34.7148 111.426 34.7237C110.591 34.7713 109.754 34.6434 108.97 34.3478C108.186 34.0522 107.472 33.5957 106.874 33.0073C106.302 32.3663 105.861 31.618 105.577 30.8056C105.293 29.9932 105.171 29.1326 105.219 28.2728C105.115 26.5389 105.684 24.832 106.807 23.5115C107.387 22.9283 108.082 22.475 108.849 22.1814C109.615 21.8878 110.434 21.7606 111.253 21.8081C112.036 21.7647 112.818 21.8906 113.549 22.1775C114.279 22.4644 114.939 22.9057 115.484 23.4712C116.529 24.7003 117.068 26.2829 116.993 27.8972C117.002 28.3547 116.975 28.8121 116.913 29.2653ZM108.97 24.7721C108.336 25.4399 107.949 26.3066 107.875 27.2266H114.55C114.474 26.3228 114.103 25.4694 113.495 24.799C113.207 24.507 112.86 24.2788 112.479 24.1287C112.097 23.9786 111.689 23.9101 111.28 23.9273C110.429 23.8908 109.598 24.1945 108.97 24.7721Z" fill="#16D2AA"/>
</svg>
